X:1
T: Loch Davon
C:C Sherrit
R:Reel
Q: 232
K:A
M:4/4
L:1/8
e|:cB cd eA ce|dc de fa gf|ef ec Ac ec|de dc B2 ed|
cB cd eA ce|dc de fa gf|ea gf ec dB|c2 A2 A2 e2:|
|:a2 ec Ac ec|df af da gf|ef ec Ac ec|de dc B2 e2|
|1a2 ec Ac ec|df af da gf|ef ec Bd cB|c2 A2 A2 e2:|
|2cB cd eA ce|dc de fa gf|ea gf ec dB|c2 A2 A3||
